arkscan/icons/coinex.svg

<svg viewBox="0 0 19 21" fill="none" xmlns="http://www.w3.org/2000/svg">
  <path
    d="M12.7238 7.88989C11.2008 6.37276 8.7801 6.37276 7.27313 7.88989C5.76616 9.42335 5.78221 11.9192 7.28919 13.4527C8.7961 14.9861 11.2489 15.0024 12.7559 13.469C12.7815 13.4429 12.8875 13.3244 13.0736 13.1136L11.2563 11.2623C11.0695 11.483 10.9709 11.5986 10.9604 11.6093C10.4473 12.1313 9.61372 12.1313 9.1007 11.6093C8.58772 11.0873 8.58772 10.239 9.0847 9.7333C9.58167 9.22757 10.4153 9.22757 10.9283 9.74957C10.9283 9.74957 12.5481 11.3966 15.7877 14.6908C14.4571 16.6483 12.2269 17.8899 9.8221 17.8899C5.84632 17.8899 2.608 14.5783 2.608 10.5C2.608 6.42168 5.84632 3.11011 9.8221 3.11011C12.1467 3.11011 14.2789 4.25204 15.6095 6.09546C15.3951 6.34876 14.8474 6.98427 13.9664 8.00195L15.7594 9.82119L18.7356 6.40541C17.1966 2.8491 13.7178 0.5 9.8221 0.5C4.41954 0.5 0.0429688 4.98614 0.0429688 10.5C0.0429688 16.0139 4.41954 20.5 9.8221 20.5C12.2749 20.5 14.3109 19.717 16.2988 17.9878C18.1104 16.4217 18.9619 14.2503 18.9619 14.2503L12.7238 7.88989Z"
    fill="url(#paint0_linear_3072_39007)" />
  <defs>
    <linearGradient id="paint0_linear_3072_39007" x1="18.9619" y1="10.5" x2="0.0429688" y2="10.5"
      gradientUnits="userSpaceOnUse">
      <stop stop-color="#22E6B8" />
      <stop offset="1" stop-color="#00C1CE" />
    </linearGradient>
  </defs>
</svg>

<svg viewBox="0 0 19 21" fill="none" xmlns="http://www.w3.org/2000/svg"><path d="M12.724 7.89a3.833 3.833 0 0 0-5.45 0c-1.508 1.533-1.492 4.03.015 5.563a3.823 3.823 0 0 0 5.467.016c.025-.026.131-.145.318-.355l-1.818-1.852c-.187.221-.285.337-.296.347a1.3 1.3 0 0 1-1.86 0c-.512-.522-.512-1.37-.015-1.876a1.295 1.295 0 0 1 1.843.017l4.86 4.94c-1.33 1.958-3.561 3.2-5.966 3.2-3.976 0-7.214-3.312-7.214-7.39 0-4.078 3.238-7.39 7.214-7.39 2.325 0 4.457 1.142 5.788 2.985-.215.254-.763.89-1.644 1.907l1.793 1.82 2.977-3.417C17.196 2.85 13.718.5 9.822.5 4.42.5.043 4.986.043 10.5s4.377 10 9.78 10c2.452 0 4.488-.783 6.476-2.512 1.811-1.566 2.663-3.738 2.663-3.738l-6.238-6.36Z" fill="url(#a)"/><defs><linearGradient id="a" x1="18.962" y1="10.5" x2=".043" y2="10.5" gradientUnits="userSpaceOnUse"><stop stop-color="#22E6B8"/><stop offset="1" stop-color="#00C1CE"/></linearGradient></defs></svg>
